X: 2
P: Harmony
C: Ed Pearlman
M: 4/4
L: 1/8
K: G
"^A1"[|] B,>A, \
| G,>B, DB, CA, B,G, | D2 GD C2 A,2 | G,>B, DC CA, B,C | D2 DE/F/ G2- GD/C/ |
"^A2"[|] DC \
| B,>D GB cA BG | D2 GD C2 A,2 | B,>D GB cA Bc | d2 DE/F/ G2- G |]
"^B1"[|] e \
| dc/A/ BG c2 B2 | A2 G2 F>E DC | B,>D GB d/c/B/A/ Bc | dB DF G2- G ||
"^B2"[|] c \
| Bc/A/ BG cA BG | EG DG F>E DC | B,E A,D G,B, CA, | D2 CD B,3 |]
